svgs/sharp-light/warehouse.svg

<svg xmlns="http://www.w3.org/2000/svg" viewBox="0 0 640 512"><!--! Font Awesome Pro 6.4.2 by @fontawesome - https://fontawesome.com License - https://fontawesome.com/license (Commercial License) Copyright 2023 Fonticons, Inc. --><path d="M320 6.8l5.9 2.3 304 120 10.1 4V144 496v16H608V496 154.9L320 41.2 32 154.9V496v16H0V496 144 133.1l10.1-4 304-120L320 6.8zM96 192h16H528h16v16V496v16H512v0H128v0H96V496 208 192zm32 288H512V416H128v64zM512 320H128v64H512V320zm0-32V224H128v64H512z"/></svg>

<svg xmlns="http://www.w3.org/2000/svg" viewBox="0 0 640 512"><!--! Font Awesome Pro 6.6.0 by @fontawesome - https://fontawesome.com License - https://fontawesome.com/license (Commercial License) Copyright 2024 Fonticons, Inc. --><path d="M320 6.8l5.9 2.3 304 120 10.1 4 0 10.9 0 352 0 16-32 0 0-16 0-341.1L320 41.2 32 154.9 32 496l0 16L0 512l0-16L0 144l0-10.9 10.1-4 304-120L320 6.8zM96 192l16 0 416 0 16 0 0 16 0 288 0 16-32 0s0 0 0 0l-384 0s0 0 0 0l-32 0 0-16 0-288 0-16zm32 288l384 0 0-64-384 0 0 64zM512 320l-384 0 0 64 384 0 0-64zm0-32l0-64-384 0 0 64 384 0z"/></svg>
